X:1648
L:1/8
Q:1/4=120
M:2/2
K:F
 c | fcAd cAFE | DdBG BAFc | fcAd cAFE | DdBG F3 :: c | fcfa gece | gegb agfg | afda gecg | 
 afed c3 B | Acfg a/g/f gA | Bdga bgec | fcAd cAFE | DdBG F3 :|

